X:2
T:Strap Ball. JBi.02
M:2/4
L:1/8
Q:1/4=90
S:James Biggins MS, Leeds, 1779.
R:.Misc.
O:England
A:Yorkshire
N:Bar 14-4th note indistinctâ€¦.
Z:vmp.Nick Barber & Chris Partington
K:G
â€œ_No key sig. in msâ€gdd2|ecc2|BdBG|FAFD|\
gdd2|ecc2|Eedc|d2D2:|!
|:DFAc|Bdgd|DFAc|Bdgd|ceac|Bdgd|BAGF|G2G,2:|

